X: 3
T:Peggy Ramsay (Greig and Duncan)
M:4/4
L:1/8
K:G
G2 G>G G>G GE|DEGA G3D|EAA^G A2 Ac|B>A Bd e3g|
G2 G>G G>A GF|D<E G>A G3c|
Beed e>fgc |B>B AG E4|
d>B d>e d>e d>B|d>B d>e d3 c|Beed  efgc|B2 AG E4 
% Output from ABC2Win  Version 2.1 f on 7/12/2002
